X:1
T:My Love is Fair and Handsome
T:Kit O'Connor's
M:4/4
L:1/8
C:Paddy Killoran
S:Bobby Casey
R:reel
D:Casey in the Cowhouse
Z:Naka Ishii <n_ishii@YAHOO.COM> irtrad-l  2000-12-03
K:A
~E2EF ABcA | eAcA BF~F2 | ~E2EF ABcA | BF~F2 BFAF |
E2CE A,2CE | d2cA BF~F2 | CE~E2 Ac~c2 | ~B2Bc ABcd |
e2 (3cBA EA (3cBA | eAcA BFFc | ec (3ccc Ac (3ccc | ecAc ~B2Bc |
ec~c2 ac~c2 | ecAc BAFe | af=ge fg{a}gf | edcA BGAF ||
~E2EF ABcA | eAcA BF~F2 | ~E2EF ABcA | BF~F2 | BFAF |
E2CE A,2CE | d2cA BF~F2 | CE~E2 Ac~c2 | ~B2Bc A2 (3Bcd |
e2 (3cBA EA (3cBA | eAcA BFFc | ec (3ccc Acec | ecAc ~B2Bc |
ec~c2 ac~c2 | ecAc BAFe | af=ge fg{a}gf | edcA BFAF ||
~E2EF ABcA | eAcA BF~F2 | ~E2EF ABcA | BF~F2 BFAF |
~E2EF ABcA | eAcA BF~F2 | ~E2EF ABcA | BAGB A4 |]
